server/website/public/icons/base/sheets.svg

<svg width="48" height="48" viewBox="0 0 48 48" fill="none" xmlns="http://www.w3.org/2000/svg">
<g clip-path="url(#clip0_1391_19979)">
<path d="M0 5.33333V42.6667C0 44.0812 0.561903 45.4377 1.5621 46.4379C2.56229 47.4381 3.91885 48 5.33333 48H42.6667C44.0812 48 45.4377 47.4381 46.4379 46.4379C47.4381 45.4377 48 44.0812 48 42.6667V5.33333C48 3.91885 47.4381 2.56229 46.4379 1.5621C45.4377 0.561903 44.0812 0 42.6667 0H5.33333C3.91885 0 2.56229 0.561903 1.5621 1.5621C0.561903 2.56229 0 3.91885 0 5.33333ZM18.6667 10.6667H40V16H18.6667V10.6667ZM18.6667 21.3333H40V26.6667H18.6667V21.3333ZM18.6667 32H40V37.3333H18.6667V32ZM8 10.6667H13.3333V16H8V10.6667ZM8 21.3333H13.3333V26.6667H8V21.3333ZM8 32H13.3333V37.3333H8V32Z" fill="black"/>
</g>
<defs>
<clipPath id="clip0_1391_19979">
<rect width="48" height="48" fill="white"/>
</clipPath>
</defs>
</svg>

<svg width="48" height="48" fill="none" xmlns="http://www.w3.org/2000/svg"><g clip-path="url(#prefix__clip0_1391_19979)"><path d="M0 5.333v37.334A5.333 5.333 0 005.333 48h37.334A5.333 5.333 0 0048 42.667V5.333A5.333 5.333 0 0042.667 0H5.333A5.333 5.333 0 000 5.333zm18.667 5.334H40V16H18.667v-5.333zm0 10.666H40v5.334H18.667v-5.334zm0 10.667H40v5.333H18.667V32zM8 10.667h5.333V16H8v-5.333zm0 10.666h5.333v5.334H8v-5.334zM8 32h5.333v5.333H8V32z" fill="#000"/></g><defs><clipPath id="prefix__clip0_1391_19979"><path fill="#fff" d="M0 0h48v48H0z"/></clipPath></defs></svg>
